X: 20
I: linebreak $
T: Gracca Amorosa
P: ABB x 5
K: C major
M: 3/4
L: 1/8
P: A
"C"g6 | "C"g4"Dm"f2 | "C"e6 | "C"e4g2 | "C"g4"Dm"f2 | "C"e4e2 | 
"G"d6 | "G"d6 | "G"d6 | "G"d4"C"c2 | "G"d6 | "G"d4"C"c2 | 
"G"d4"C"e2 | "Dm"f4"G"d2 | "C"e6 | "C"e6 | "C"g6 | "C"g4"Dm"f2 | 
"C"e6 | "C"e4g2 | "C"g4"Dm"f2 | "C"e4e2 | "G"d6 | "G"d4 |: 
P: B
"F"c2 | 
"F"c4c2 | "G"d4d2 | "C"e4e2 | "Bb"d4"Dm"f2 | "C"e3dc2 | "G"d3cd2 | 
 [1 "C"c6 | c4 :|]  [2 c6c6 |] 

